X:10
T:Jim Magill's Breakdown
C:Jim Magill
R:reel
M:4/4
L:1/8
Z:abc by Bruce Osborne - bosborne@kos.net
K:D
A2|(3fgf ed BcdB|AFBF AFBF|DFAd fagf|edcd [A2e2]A2|
(3fgf ed BcdB|AFBF AFBF|DFAd (3fgf ed|cABc d2:|
|:A2|DDAD DBDD|dDDD B2A2|A,CEG F2E2|afdf [A2e2][A2e2]|
DDAD DBDD|dDDD B2A2|aafa ggeg|fdec d2:|
